usr/share/icons/biglinux-icons-material/16/actions/mail-invitation.svg

<svg version="1.1" viewBox="0 0 16 16" xmlns="http://www.w3.org/2000/svg">
 <defs>
  <style id="current-color-scheme" type="text/css">.ColorScheme-Text {
        color:#dedede;
      }</style>
 </defs>
 <path d="m3 0c-0.554 0-1 0.446-1 1v1c-1.108 0-2 0.892-2 2v8c0 1.108 0.892 2 2 2h6.75a4.5 4.5 0 0 1-0.49219-1h-6.2578c-0.48888 0-0.87448-0.35406-0.96289-0.81641l4.4609-3.5508 1.1699 0.93164c0.43556 0.34685 1.0385 0.48257 1.6094 0.41602a4.5 4.5 0 0 1 1.2754-1.8555l-1.0137 0.80664c-0.30559 0.24335-0.77258 0.24335-1.0781 0l-4.4609-3.5527v-2.3789-1-1h10v1 1 2.3789l-3.1426 2.502a4.5 4.5 0 0 1 2.6426-0.86328 4.5 4.5 0 0 1 0.027344 0.0019531l2.4727-1.9707v2.7285a4.5 4.5 0 0 1 1 0.91211v-4.6895c0-1.108-0.892-2-2-2v-1c0-0.554-0.446-1-1-1h-10zm1.5 2c-0.277 0-0.5 0.223-0.5 0.5s0.223 0.5 0.5 0.5h7c0.277 0 0.5-0.223 0.5-0.5s-0.223-0.5-0.5-0.5h-7zm-2.5 1v1.584l-0.96289-0.76758c0.088406-0.46235 0.47401-0.81641 0.96289-0.81641zm12 0c0.48888 0 0.87448 0.35406 0.96289 0.81641l-0.96289 0.76758v-1.584zm-9.5 1c-0.277 0-0.5 0.223-0.5 0.5s0.223 0.5 0.5 0.5h7c0.277 0 0.5-0.223 0.5-0.5s-0.223-0.5-0.5-0.5h-7zm-3.5 1.0488 3.7051 2.9512-3.7051 2.9512v-5.9023z" style="fill:currentColor" class="ColorScheme-Text"/>
 <path d="m12.5 8.0176a3.5 3.5 0 0 0-3.5 3.5 3.5 3.5 0 0 0 3.5 3.5 3.5 3.5 0 0 0 3.5-3.5 3.5 3.5 0 0 0-3.5-3.5zm0 0.98242a2.5169 2.5169 0 0 1 2.5176 2.5176 2.5169 2.5169 0 0 1-0.87109 1.8984 3.5 3.5 0 0 0-1.6465-0.41602 3.5 3.5 0 0 0-1.6504 0.41406 2.5169 2.5169 0 0 1-0.86719-1.8965 2.5169 2.5169 0 0 1 2.5176-2.5176zm0 1a1 1 0 0 0-1 1 1 1 0 0 0 1 1 1 1 0 0 0 1-1 1 1 0 0 0-1-1z" style="fill:currentColor" class="ColorScheme-Text"/>
</svg>

<svg xmlns="http://www.w3.org/2000/svg" viewBox="0 0 16 16"><defs><style id="current-color-scheme" type="text/css">.ColorScheme-Text{color:#dedede}</style></defs><path d="M3 0c-.554 0-1 .446-1 1v1C.892 2 0 2.892 0 4v8c0 1.108.892 2 2 2h6.75a4.5 4.5 0 0 1-.492-1H2a.983.983 0 0 1-.963-.816l4.461-3.551 1.17.931c.435.347 1.038.483 1.61.416a4.5 4.5 0 0 1 1.275-1.855l-1.014.807a.887.887 0 0 1-1.078 0L3 5.379V1h10v4.379L9.857 7.88a4.5 4.5 0 0 1 2.643-.863 4.5 4.5 0 0 1 .027.002L15 5.049v2.728a4.5 4.5 0 0 1 1 .912V4c0-1.108-.892-2-2-2V1c0-.554-.446-1-1-1H3zm1.5 2a.499.499 0 1 0 0 1h7a.499.499 0 1 0 0-1h-7zM2 3v1.584l-.963-.768A.983.983 0 0 1 2 3zm12 0c.489 0 .874.354.963.816L14 4.584V3zM4.5 4a.499.499 0 1 0 0 1h7a.499.499 0 1 0 0-1h-7zM1 5.049 4.705 8 1 10.951V5.05z" class="ColorScheme-Text" style="fill:currentColor"/><path d="M12.5 8.018a3.5 3.5 0 0 0-3.5 3.5 3.5 3.5 0 0 0 3.5 3.5 3.5 3.5 0 0 0 3.5-3.5 3.5 3.5 0 0 0-3.5-3.5zm0 .982a2.517 2.517 0 0 1 2.518 2.518 2.517 2.517 0 0 1-.871 1.898A3.5 3.5 0 0 0 12.5 13a3.5 3.5 0 0 0-1.65.414 2.517 2.517 0 0 1-.868-1.896A2.517 2.517 0 0 1 12.5 9zm0 1a1 1 0 0 0-1 1 1 1 0 0 0 1 1 1 1 0 0 0 1-1 1 1 0 0 0-1-1z" class="ColorScheme-Text" style="fill:currentColor"/></svg>
